!!!COM:	Bach, Johann Sebastian
!!!CDT:	1685/02/21/-1750/07/28/
!!!OTL@@DE:	Allein Gott in der H&ouml;h sei Ehr
!!!SCT:	BWV 104/6
!!!PC#:	125
!!!AGN:	chorale
**kern	**kern	**kern	**kern
*ICvox	*ICvox	*ICvox	*ICvox
*Ibass	*Itenor	*Ialto	*Isoprn
*I"Bass	*I"Tenor	*I"Alto	*I"Soprano
*>[A,A,B]	*>[A,A,B]	*>[A,A,B]	*>[A,A,B]
*>norep[A,B]	*>norep[A,B]	*>norep[A,B]	*>norep[A,B]
*>A	*>A	*>A	*>A
*clefF4	*clefGv2	*clefG2	*clefG2
*k[f#]	*k[f#]	*k[f#]	*k[f#]
*G:	*G:	*G:	*G:
*M4/4	*M4/4	*M4/4	*M4/4
*met(c)	*met(c)	*met(c)	*met(c)
*MM100	*MM100	*MM100	*MM100
4GG	8BL	4d	8gL
.	8cJ	.	8aJ
=1	=1	=1	=1
8GL	4d	4g	4b
8F#J	.	.	.
4E	4e	4g	4cc
4D	8AL	4f#	4dd
.	8BJ	.	.
4AA	4c	8eL	4cc
.	.	8f#J	.
=2	=2	=2	=2
8BBL	4d	4g	4b
8CJ	.	.	.
4D	4d	4f#	4a
4GG;	4d;	4g;	4b;
8GL	4G	4d	4b
8F#J	.	.	.
=3	=3	=3	=3
8EL	2.G	4e	4b
8D	.	.	.
8C	.	8eL	8aL
8BBJ	.	8dJ	8bJ
8AAL	.	4c	8ccL
8GGJ	.	.	8bJ
4FF#	8cL	4d	4a
.	8AJ	.	.
=4	=4	=4	=4
8BBL	8dL	8d	4g
8GGJ	16cL	4g	.
.	16BJJ	.	.
4D	4c	.	4a
.	.	8f#	.
4GG;	4B;	4d;	4g;
=:|!	=:|!	=:|!	=:|!
*>B	*>B	*>B	*>B
4GG	4B	4d	4g
=5	=5	=5	=5
4D	4F#	4d	4a
8CL	4G#	4d	4b
8BBJ	.	.	.
4AA	4A	8cL	4cc
.	.	8dJ	.
8DL	4G#	4e	4b
8EJ	.	.	.
=6	=6	=6	=6
4F	4A	8eL	4a
.	.	8dJ	.
4E	4G#	8dL	4b
.	.	16cL	.
.	.	16BJJ	.
4AA;	4E;	4c;	4a;
4F#	4A	4d	4a
=7	=7	=7	=7
8GnXL	4GnX	4d	4b
8F#J	.	.	.
4E	4G	4e	4cc
4D	4A	4f#	4dd
8EL	8GL	4e	4cc
8F#J	8AJ	.	.
=8	=8	=8	=8
8GL	4B	4d	4b
8G#J	.	.	.
4A	8EL	8cL	4a
.	8F#J	16eL	.
.	.	16d#JJ	.
4E;	4G#X;	4e;	4b;
8GL	4G	4d	4b
8F#J	.	.	.
=9	=9	=9	=9
8EL	2G	4e	4b
8D	.	.	.
8C	.	8eL	8aL
8BBJ	.	8dJ	8bJ
8AAL	4A	4c	8ccL
8BBJ	.	.	8bJ
4C	4F#	4d	4a
=10	=10	=10	=10
8BBL	8GL	8dL	8gL
8CJ	8cJ	8eJ	8eJ
4D	4A	4d	4f#
4GG;	4B;	4d;	4g;
==	==	==	==
*-	*-	*-	*-
!!!hum2abc: -Q ''
!!!title: @{PC#}. @{OTL@@DE}
!!!YOR1: 371 vierstimmige Choralges&auml;nge von Johann Sebastian Bach, 
!!!YOR2: 4th ed. by Alfred D&ouml;rffel (Leipzig: Breitkopf und H&auml;rtel, 
!!!YOR2: c.1875). 178 pp. Plate "V.A.10".  reprint: J.S. Bach, 371 Four-Part 
!!!YOR4: Chorales (New York: Associated Music Publishers, Inc., c.1940).
!!!SMS: B&H, 4th ed, Alfred D&ouml;rffel, c.1875, plate V.A.10
!!!EED:  Craig Stuart Sapp
!!!EEV:  2009/05/22
